!!!OTL: Der Schwatzhafte (141), S. 316
!!!id: T0310
**kern
*clefG2
*k[f#]
*G:
{8d
=1
8g
8g
8f#
8e
=2
8e
8d
8d}
=3
{8d
=4
8g
8g
8a
8b
=5
4a
4g}
=6
4r
=7
{4dd
=8
8b
8b
8b
8b
=9
4.b
8dd
=10
8ee
8dd
8cc
8b
=11
4cc}
8r
=12
{8b
=13
8a
8a
8a
8a
=14
4.dd
8cc
=15
8b
8b
8a
8a
=16
4g}
8r
==
*-
!!!minrhy: 8
!!!meters: 2/4 ]  ZZ[4
!!!cut: Der Schwatzhafte (141), S. 316
!!!reg: Luxemburg
!!!trd: Singendes Volk, Esch-Alzette 1937, posth.
!!!rhy1: X  XXXX  XXX
!!!rhy2: X  XXXX  X_X_  0_
!!!key: T0310  08  G 2/4 ]  ZZ[4
!!!mod: HEPTATONIK IONISCH]  AMBITUS[9
!!!kad: -5141
!!!akz: 1-6_12_3364_2531_
!!!fot: 'a__b__c__d__
!!!for: 'a__b__c__cv_
!!!fok: '^__^a_Sd_^d_
!! PHRAS[AUFTAKTIG]
!!!fkt: Liebeslied
!!!bem: Esch-Alzette, hhh Dominik M&uuml;ller, 7.6.1915
!! THILL, Mathias:
!! PR[37] 2K[6] 2G[14] 3K[4] 3G[4] 4A[4] 4Ü[0] 5A[0] 6K[0] 6G[2]
!! 7K[0] 7G[0] 8A[0] MEHR[0] SI[35] ABS[49] SR[20] SP[14]
!! ST[18] 2k[6] 2g[14] 3k[2] 3g[0] 4d[2] 4ü[0] 5d[2] 6k[0] 6g[2]
!! 7k[0] 7g[0] 8d[0] mehr[0] si[29] dm[+6] sr[20] sp[8]
!! 1F[81] 2F[15] 3F[0] 4F[0] LF[0] 2P[3] 3P[0] 4P[0] TRI[0] DF[3] AB[59]
!! TF[0] U3K[0] U3[0] U4[0] U4Ü[0] U5[6] U6K[0] U6[2] U7K[0] U7[2]
!! N1[26] N2K[0] N2[6] N3K[0] N3[30] N4[8] N4Ü[0] N5[14] N6K[0] N6[6]
!!!n7k: 0] N7[0] O1[0] O2K[0] O2[0] O3K[0] O3[0] HÖ[0
!!!RNB: symbol: &uuml;  = u umlaut (UTF-8: Ã¼)
